X:5
T: Sarah's Bliss (with piano acc.)
C: BB
L: 1/8
M: 9/8
Q: 330
R: slip jig
V: 1 program 1 73 %flute
V: 2 bass volume = 70 program 1 01 m=D
K: Amix
[V:1] d|"A"edc "G"BcB "A"AEE|"A"edc "G"BAB "A"c2e|
[V:2] z|[A,,3E,3C3][G,,3D,3B,3][A,,3E,3C,,3]|[A,,3E,3C3][G,,3D,3B,3][A,3E,3C3]|
%
[V:1] "A"edc "G"BcB "A"AEE|"G"GAB "Em"dBG "A"A2 :|
[V:2] [A,,3E,3C3][G,,3D,3B,3][A,,3E,3C3]|[G,,3D,3B,3][E,,3B,,3G,3][A,,2E,2C2]:|
%
[V:1] e|"A"aec "G"Bcd "A"cAA|"A"aec Ace "Em"g2e|
[V:2] z|A,2[EC]G,2[DB,]E,2[A,C]|C,2[AE]E,2[AC]G,2[BE]|
%
[V:1] "A"aga "Bm"baf "A"ecA|"G"GAB "Em"dBG "A"A2 :|
[V:2] [A,,3E,3C3][B,,3F,3D3][A,,3E,3C3]|[G,,3D,3B,3][E,,3B,,3G,3][A,,2E,2C2]:|
%%%%%%%%%%%%%%%%%%%%%%%%%%%%%%%%%%%%%%%
